Sources/FrostedUI/Resources/Icons.xcassets/swords20.imageset/swords-20.svg

<svg width="20" height="20" viewBox="0 0 20 20" fill="none" xmlns="http://www.w3.org/2000/svg" data-fui-icon="true">
  <g clip-path="url(#clip0_1083_207)">
    <path
      fill-rule="evenodd"
      clip-rule="evenodd"
      d="M17.2759 0.852935C17.2217 0.581709 17.0226 0.362355 16.7578 0.2822C16.4931 0.202046 16.2057 0.274105 16.0102 0.469689L11.1931 5.28679L10.6627 5.81712L11.7234 6.87778L12.2537 6.34745L15.8125 2.7887C15.6539 3.62011 15.2501 4.39856 14.6341 5.0145L14.6341 5.0145L12.7774 6.87117L12.2471 7.4015L13.3078 8.46216L13.8381 7.93183L15.6947 6.07517L15.6948 6.07516C17.0617 4.70823 17.655 2.74854 17.2759 0.852935ZM4.43048 10.4649C4.72338 10.172 5.19825 10.172 5.49114 10.4649L5.75301 10.7267L6.20859 10.2711L6.73892 9.74081L7.79959 10.8015L7.26926 11.3318L6.81376 11.7873L7.33749 12.311L7.793 11.8555L8.32333 11.3252L9.384 12.3858L8.85367 12.9162L8.34484 13.425C9.30475 14.876 9.14571 16.8492 7.86774 18.1272L7.33962 18.6553C5.88001 20.1149 3.51353 20.1149 2.05392 18.6553L0.469548 17.0709C0.176655 16.778 0.176655 16.3031 0.469548 16.0103L0.476777 16.0031L4.69243 11.7875L4.43048 11.5255C4.13759 11.2326 4.13759 10.7578 4.43048 10.4649ZM6.2768 13.3718L5.75308 12.8481L2.0607 16.5405L2.58443 17.0642L6.2768 13.3718ZM6.80708 17.0665C7.49487 16.3787 7.6413 15.3546 7.24637 14.5236L3.73603 18.0339C4.56704 18.4288 5.59117 18.2824 6.27896 17.5946L6.80708 17.0665ZM17.9461 18.6553L19.5304 17.0709C19.8233 16.778 19.8233 16.3032 19.5304 16.0103L15.3075 11.7873L15.5693 11.5255C15.8622 11.2326 15.8622 10.7578 15.5693 10.4649C15.2764 10.172 14.8015 10.172 14.5087 10.4649L14.1586 10.8149L3.9016 0.557827C3.22597 3.93567 6.04411 6.75367 8.48422 9.19364L8.52465 9.23407L12.1321 12.8415C10.6725 14.3011 10.6725 16.6676 12.1321 18.1272L12.6602 18.6553C14.1158 20.1109 16.4734 20.1149 17.9339 18.6672L17.9461 18.6553ZM13.1927 17.0665C12.5049 16.3787 12.3585 15.3544 12.7535 14.5234L16.2639 18.0338C15.4329 18.4289 14.4087 18.2825 13.7208 17.5946L13.1927 17.0665ZM17.4156 17.0642L17.9394 16.5405L14.247 12.8481L13.7233 13.3719L17.4156 17.0642Z"
      fill="currentColor"
    />
  </g>
  <defs>
    <clipPath id="clip0_1083_207"><path fill="currentColor" d="M0 0H20V20H0z" /></clipPath>
  </defs>
</svg>

<svg xmlns="http://www.w3.org/2000/svg" width="20" height="20" fill="none" data-fui-icon="true" viewBox="0 0 20 20"><g clip-path="url(#a)"><path fill="currentColor" fill-rule="evenodd" d="M17.276.853A.75.75 0 0 0 16.01.47l-4.817 4.817-.53.53 1.06 1.06.53-.53 3.56-3.558a4.3 4.3 0 0 1-1.179 2.226L12.777 6.87l-.53.53 1.06 1.061.531-.53 1.857-1.857a5.78 5.78 0 0 0 1.58-5.222M4.43 10.465a.75.75 0 0 1 1.061 0l.262.262.456-.456.53-.53 1.06 1.06-.53.53-.455.456.523.524.456-.456.53-.53 1.061 1.06-.53.531-.51.509c.96 1.451.802 3.424-.476 4.702l-.528.528a3.74 3.74 0 0 1-5.286 0L.47 17.071a.75.75 0 0 1 0-1.06l.007-.008 4.215-4.216-.262-.262a.75.75 0 0 1 0-1.06m1.847 2.907-.524-.524-3.692 3.693.523.523zm.53 3.695a2.24 2.24 0 0 0 .44-2.543l-3.511 3.51a2.24 2.24 0 0 0 2.543-.44zm11.14 1.588 1.583-1.584a.75.75 0 0 0 0-1.06l-4.223-4.224.262-.262a.75.75 0 1 0-1.06-1.06l-.35.35L3.902.558c-.676 3.378 2.142 6.196 4.582 8.636l.04.04 3.608 3.608a3.74 3.74 0 0 0 0 5.285l.528.528a3.74 3.74 0 0 0 5.274.012zm-4.754-1.588a2.24 2.24 0 0 1-.44-2.544l3.51 3.51a2.24 2.24 0 0 1-2.542-.438zm4.223-.003.523-.523-3.692-3.693-.524.524z" clip-rule="evenodd"/></g><defs><clipPath id="a"><path fill="currentColor" d="M0 0h20v20H0z"/></clipPath></defs></svg>
